**kern	**kern	**dynam
*part1	*part1	*part1
*staff2	*staff1	*
*I"Piano	*	*
*clefF4	*clefG2	*
*k[f#c#g#d#a#]	*k[f#c#g#d#a#]	*
=1	=1	=1
8BBL 8An	8BL 8d# 8f#	.
8BB 8A	8B 8d# 8f#	.
8BB 8A	8B 8d# 8f#	.
8BBJ 8A	8BJ 8d# 8f#	.
=	=	=
8BBL 8G#	8BL 8dn 8e#X	p
8BB 8G#	8B 8d 8e#	.
8BB 8G#	8B 8d 8e#	.
8BBJ 8G#	8BJ 8d 8e#	.
=	=	=
8AA#L 8F#	8c#L 8f# 8cc#	<
8AA# 8C# 8F# 8A#	8c# 8f# 8cc#	.
8AA# 8C# 8F# 8A#	8c# 8f# 8cc#	.
8AA#J 8C# 8F# 8A#	8c#J 8f# 8cc#	.
=	=	=
8FF#L 8C# 8F#	8A#L 8c# 8f# 8a#	[
8FF# 8C# 8F#	8A# 8c# 8f# 8a#	.
8FF# 8C# 8F#	8A# 8c# 8f# 8a#	.
8FF#J 8C# 8F#	8A#J 8c# 8f# 8a#	.
=	=	=
8FF#L 8Dn 8F#	8BL 8dn 8e#X 8g#	.
8FF# 8D 8F#	8B 8d 8e# 8g#	>
8FF# 8D 8F#	8B 8d 8e# 8g#	.
8FF#J 8D 8F#	8BJ 8d 8e# 8g#	.
=	=	=
*^	*	*
8C#L 8F#	2FF#	8A#L 8c# 8f#	]
8C# 8F#	.	8A# 8c# 8f#	.
8C# 8F#	.	8A# 8c# 8f#	.
8C#J 8F#	.	8A#J 8c# 8f#	.
*v	*v	*	*
=	=	=
8r	8A#L 8c# 8en 8f#	p
8FF#L	8A# 8c# 8e 8f#	.
(8G#^^	8A# 8c# 8e 8f#	.
8F#J)	8A#J 8c# 8e 8f#	.
=	=	=
*-	*-	*-
!!!system-decoration: {(s1,s2)}
